X:203
T:Chickadee's Polka for Bb Instruments
M:4/4
L:1/4
K:A
A/2B/2|"A"cA EA/2B/2|cA EA/2B/2|"A"cA F/G/A|"D"F2 "A"E2|"D"DF FE/D/|
"A"CE Ac|"B7"cB Fc|"E7"cB BA/B/|"A"cA EA/2B/2|cA EA/2B/2|
"A"cA F/G/A|"D"F2 "A"E2|"D"FA df|"A"fe ce/2d/2|"B7"cB "E7"AG|"A"A3e/2d/2
||
"A"cc ce/2d/2|cc ce/2d/2|"A"ce ab|c'2 a2|"Bm"b3/2c'/2 "A"ba|"D"f/g/a/f/
"A"ec/e/|
"D"fe "A"dc|"E7"B3e/2d/2|"A"cc ce/2d/2|cc ce/2d/2|"A"ce ab|
c'2 a2|"E"b3/2c'/2 ba|"A"f/2g/2 a/2f/2 ec/2e/2|"D"fa "E7"g/2a/2b|"A"
a3||
